X: 5501
T: Bunny's Hat, The
R: reel
M: 4/4
K: Bminor
|:FABF cBAF|BcdB fedB|FABF ~A3 F|E ~F3 A ~B3|
FABF cBAF|BcdB fedB|FABd c ~A3|fdec B3 A:|
|:FAB/c/d e ~f3|e ~f3 edBA|FAB/c/d e ~f3|edBA B2 BA|
FAB/c/d e ~f3|a ~f3 bafe|d ~B3 c ~A3|fdec B3 A:|

